X: 73
T: Richmond Cotillion
S:The Portland Collection
C:The Portland Collection
M:4/4
L:1/4
K:D
"D"[DA]ff/g/f/e/|\
dFA3/d/|\
"A"cBAB|\
A/B/A/G/F/G/F/E/|\
dFA3/d/|\
"D"dFA3/d/|\
"A"cAB/A/c/A/|\
"D"d4::\
K:A
"A"e/f/e/d/c/d/e/f/|\
ace2|\
"E"BcdB|\
"A"c/d/c/B/A/B/c/d/|\
K:A
"A"e/f/e/d/c/d/e/f/|\
ace3/a/|\
"E"gef/e/g/e/|\
"A"\
|1 \
a4:|\
"A"\
:|2 \
a2"A7"g2:|\
%%sep 2 1 500
